X:2127
T:To the East Indies we were bound - Polly dear
C:Tom Kermode, Bradda 
C:Traditional
O:Isle of Man
Z:Clague collection
B:Kiaull Vannin #127 
M:3/4 
L:1/4
Q:120 
K:G 
GB B|B2G|B A G|de f|gd B|c e2| 
d B d|g2 B|c e d|G B c|A2 F|G3|| 

